X: 29134
T: Nerissa
R: waltz
M: 3/4
K: Gmajor
D2|"C"E2 G3D|"C" E2 G3A|"G" B2 d3 e|"G" d2B2A2|
"Em" G2A3B|"Bm"d2B2A2|"C"B4AB|"D7" G2E2D2|
"C" E2G3D|"C" E2G3A|"G"B2d3e|"Bm"d2B2d2|
"C"e2a3e|"G"d2B2A2|"D7"B2G3G|"G" G6|
d2|"G" g4ag|"C" e2d2 g2|"C" e2d3e|"D" d2B2A2|
"Em"g4ag|"C"e2d2e2|"G"dB G2 B2|"D7" A4GE|
"G"D4EG|"Am" A4GA|"Bm" B2d3e|"Em7" d2B2d2|
"C"g4ag|"C" e2d2B2|"D7" GB A3G|"G" G6|

